apps/32/alligator.svg

<?xml version="1.0" encoding="UTF-8" standalone="no"?>
<!-- Created with Inkscape (http://www.inkscape.org/) -->

<svg
  width="32"
  height="32"
  version="1.1"
  viewBox="0 0 32 32"
  id="svg22"
  xmlns:xlink="http://www.w3.org/1999/xlink"
  xmlns="http://www.w3.org/2000/svg"
  xmlns:svg="http://www.w3.org/2000/svg">
 <defs
   id="defs12">
  <linearGradient
    xlink:href="#linearGradient3487"
    id="linearGradient3403"
    gradientUnits="userSpaceOnUse"
    x1="6.9491749"
    y1="4.5549412"
    x2="11.215498"
    y2="59.052471" />
  <linearGradient
    id="linearGradient3487">
   <stop
     style="stop-color:#32373c;stop-opacity:1"
     offset="0"
     id="stop3481" />
   <stop
     id="stop3483"
     offset="0.36804965"
     style="stop-color:#1a1a1a;stop-opacity:1" />
   <stop
     style="stop-color:#31363b;stop-opacity:1"
     offset="1"
     id="stop3485" />
  </linearGradient>
  <linearGradient
    xlink:href="#linearGradient20604"
    id="linearGradient20558"
    gradientUnits="userSpaceOnUse"
    x1="25.802212"
    y1="20.373846"
    x2="25.111048"
    y2="58.912758" />
  <linearGradient
    id="linearGradient20604">
   <stop
     id="stop20598"
     offset="0"
     style="stop-color:#3d3d3d;stop-opacity:1" />
   <stop
     style="stop-color:#000000;stop-opacity:1"
     offset="0.61772454"
     id="stop20600" />
   <stop
     id="stop20602"
     offset="1"
     style="stop-color:#3d3d3d;stop-opacity:1" />
  </linearGradient>
  <filter
    style="color-interpolation-filters:sRGB"
    id="filter20720"
    x="-0.017024755"
    y="-0.016457183"
    width="1.0340491"
    height="1.0329144">
   <feGaussianBlur
     stdDeviation="0.14745661"
     id="feGaussianBlur20722" />
  </filter>
  <linearGradient
    gradientTransform="translate(0.36067797,-0.13016949)"
    xlink:href="#linearGradient4555"
    id="linearGradient4557"
    x1="43.499737"
    y1="64.011795"
    x2="44.141731"
    y2="0.30621234"
    gradientUnits="userSpaceOnUse" />
  <linearGradient
    id="linearGradient4555">
   <stop
     style="stop-color:#141618;stop-opacity:1"
     offset="0"
     id="stop4551" />
   <stop
     id="stop4559"
     offset="0.51820582"
     style="stop-color:#686868;stop-opacity:1" />
   <stop
     style="stop-color:#31363b;stop-opacity:1"
     offset="1"
     id="stop4553" />
  </linearGradient>
  <filter
    style="color-interpolation-filters:sRGB"
    id="filter4601"
    x="-0.030244762"
    width="1.0604895"
    y="-0.030100647"
    height="1.0602013">
   <feGaussianBlur
     stdDeviation="0.014790289"
     id="feGaussianBlur4603" />
  </filter>
  <linearGradient
    id="linearGradient1006"
    x1="4.8405175"
    x2="9.4169273"
    y1="5.9970527"
    y2="10.573462"
    gradientUnits="userSpaceOnUse">
   <stop
     offset="0"
     id="stop7" />
   <stop
     stop-color="#05221c"
     stop-opacity="0"
     offset="1"
     id="stop9" />
  </linearGradient>
  <linearGradient
    id="linearGradient1078"
    x1="19.17029"
    x2="19.17029"
    y1="43"
    y2="1.8314241"
    gradientTransform="translate(0.00269953)"
    gradientUnits="userSpaceOnUse">
   <stop
     stop-color="#16a085"
     offset="0"
     id="stop12" />
   <stop
     stop-color="#1cdc9a"
     offset="1"
     id="stop14" />
  </linearGradient>
  <linearGradient
    id="linearGradient1087"
    x1="19.17029"
    x2="40.893143"
    y1="43"
    y2="-13.594682"
    gradientUnits="userSpaceOnUse">
   <stop
     stop-color="#1abc9c"
     offset="0"
     id="stop17" />
   <stop
     stop-color="#eff0f1"
     offset="1"
     id="stop19" />
  </linearGradient>
  <radialGradient
    id="radialGradient886"
    cx="19.472553"
    cy="10.657272"
    r="0.98144501"
    gradientTransform="matrix(0.7278512,0,0,0.72857555,-9.2763561,-5.0198627)"
    gradientUnits="userSpaceOnUse">
   <stop
     stop-color="#16a085"
     offset="0"
     id="stop22" />
   <stop
     stop-color="#16a085"
     stop-opacity="0"
     offset="1"
     id="stop24" />
  </radialGradient>
 </defs>
 <rect
   style="display:inline;fill:#d2873f;fill-opacity:1;fill-rule:evenodd;stroke:none;stroke-width:0.617;stroke-linejoin:round;stroke-miterlimit:7.8"
   id="rect1192"
   width="27.986259"
   height="28.403553"
   x="2.1033354"
   y="2.0072956"
   ry="0" />
 <g
   id="g14051"
   transform="matrix(0.58723421,0,0,0.58723422,2.0681756,1.6540667)">
  <g
    id="g47"
    transform="matrix(3.7795276,0,0,3.7795276,5.5365885,-1.719582)">
   <path
     transform="scale(0.26458333)"
     d="m 4,37 v 1 c 0,3.324 2.6760145,6 6,6 h 4.671875 l 1,-1 H 10 C 6.6760145,43 4,40.324 4,37 Z"
     fill="#11806b"
     style="paint-order:fill markers stroke"
     id="path35" />
   <path
     d="M 5.8668253,2.523877 2.4267252,9.7761474 1.363741,10.724927 c 0.2882151,0.395112 0.7534407,0.652156 1.2820923,0.652156 h 7.4083337 c 0.879471,0 1.5875,-0.708025 1.5875,-1.5874998 V 8.2987181 Z"
     fill="url(#linearGradient1006)"
     opacity="0.1"
     style="fill:url(#linearGradient1006);paint-order:fill markers stroke"
     id="path37" />
   <path
     transform="scale(0.26458333)"
     d="m 21.289062,22.203125 c 3.40507,2.338841 6.06826,5.563175 7.748047,9.287109 l 3.341797,-0.894531 C 29.698304,26.748822 25.842791,23.777704 21.289062,22.203125 Z"
     fill="#ffffff"
     style="paint-order:fill markers stroke"
     id="path39" />
   <path
     transform="scale(0.26458333)"
     d="m 21.117188,13.482422 -1.00586,3.751953 c 5.058196,0.184616 9.917407,2.05105 13.777344,5.349609 -3.060191,-4.52426 -7.620535,-7.714903 -12.771484,-9.101562 z"
     fill="#ffffff"
     style="paint-order:fill markers stroke"
     id="path41" />
   <path
     d="M 8.1501209,8.9098886 7.9433806,9.0292863 C 7.5498175,7.7492162 6.7400621,6.6351699 5.6327309,5.8745767 c 1.4216154,0.544469 2.3005459,2.4482161 2.51739,3.0353119 z"
     fill="#eff0f1"
     style="paint-order:fill markers stroke"
     id="path43" />
   <path
     transform="scale(0.26458333)"
     d="m 18.322266,8.5410156 c -0.766591,-0.046782 -1.48262,0.4468367 -1.689454,1.21875 l -0.3125,1.1660154 c -0.139637,0.521149 -0.01012,1.04621 0.296876,1.439453 l -0.0059,0.0039 c 0.296774,0.390008 0.42043,0.903867 0.285156,1.416015 -5.06e-4,0.0019 5.14e-4,0.0039 0,0.0059 l -0.0625,0.230468 -0.01758,0.06445 -1.123047,4.191406 -0.0332,0.123047 -0.259765,0.96875 C 14.49903,21.398775 13.41534,22.208413 11.501953,22 c -2.4852805,0 -4.4999999,2.014719 -4.4999999,4.5 1.093e-4,0.41137 0.056624,0.820782 0.1679688,1.216797 0.2713701,1.254787 -0.036926,2.601532 -0.9511719,3.617187 L 4.0019531,33.550781 V 37 c 0,0.404678 0.041521,0.799829 0.1171875,1.181641 0.049353,0.249033 0.1163393,0.489828 0.1953125,0.726562 0.019351,0.05805 0.041437,0.114615 0.0625,0.171875 0.071562,0.194419 0.1536625,0.384096 0.2441407,0.56836 0.017461,0.03553 0.032617,0.07223 0.050781,0.107421 0.1167647,0.226318 0.245091,0.444107 0.3886719,0.652344 0.00372,0.0053 0.00798,0.01033 0.011719,0.01563 0.1335988,0.192416 0.2808527,0.373832 0.4355469,0.548828 0.036094,0.04082 0.072184,0.0813 0.109375,0.121094 0.1544315,0.165392 0.316086,0.323717 0.4882813,0.470703 0.013002,0.01096 0.025965,0.02224 0.039062,0.0332 0.1930356,0.161953 0.396622,0.310375 0.609375,0.447266 0.026381,0.01701 0.053421,0.03212 0.080078,0.04883 0.1843427,0.114557 0.375167,0.218125 0.5722656,0.3125 0.043204,0.02079 0.085132,0.04281 0.1289062,0.0625 0.229818,0.10337 0.4666455,0.195339 0.7109376,0.269531 C 8.8014765,42.906987 9.3899886,43 10.001953,43 h 5.671875 l 0.855469,-0.855469 c 4.289186,-4.289185 14.981231,-6.378103 22.730469,-9.519531 1.46688,-0.393049 2.330548,-1.890543 1.9375,-3.357422 -0.08599,-0.320882 -0.19641,-0.506817 -0.333985,-0.605469 l 0.07617,-0.359375 -2.642578,0.708985 h -0.0059 l -22.984375,6.158203 0.335937,-1.251953 1.017578,-3.796875 3.388672,-12.642578 1.609375,-6.007813 0.517578,-1.9316405 -1.93164,-0.5175781 c -0.0066,-0.00176 -0.01297,-0.00221 -0.01953,-0.00391 l -1.572265,-0.421875 -0.07227,-0.019531 -0.002,0.00781 c -0.08548,-0.019023 -0.17094,-0.037787 -0.255859,-0.042969 z"
     fill="url(#linearGradient1078)"
     style="fill:url(#linearGradient1078);paint-order:fill markers stroke"
     id="path45" />
  </g>
  <g
    id="g53"
    transform="matrix(3.7795276,0,0,3.7795276,5.5365885,-1.719582)">
   <circle
     cx="3.0427084"
     cy="7.0114589"
     r="0.92604166"
     fill="#ffffff"
     style="paint-order:fill markers stroke"
     id="circle49" />
   <ellipse
     cx="3.3072915"
     cy="6.7468753"
     rx="0.39687476"
     ry="0.39687458"
     fill="#2c3e50"
     style="paint-order:fill markers stroke"
     id="ellipse51" />
  </g>
  <g
    id="g69"
    transform="matrix(3.7795276,0,0,3.7795276,5.5365885,-1.719582)">
   <path
     transform="scale(0.26458333)"
     d="M 21.207031,9.2792969 12.339844,36.912109 h 0.002 c -0.08714,0.325455 -0.0041,0.672905 0.220703,0.923829 0.251303,0.279945 0.638709,0.394732 1.001953,0.296874 v 0.0039 L 41.195312,29.267578 40.9375,28.302734 15.304688,35.169922 22.173828,9.5390619 Z"
     fill="url(#linearGradient1087)"
     style="fill:url(#linearGradient1087);paint-order:fill markers stroke"
     id="path55" />
   <path
     d="M 4.0493653,9.305374 8.6376437,4.7170953"
     fill="#ffffff"
     opacity="0.878"
     style="paint-order:fill markers stroke"
     id="path57" />
   <path
     d="M 5.8668253,2.5238769 4.7086366,8.6461025 10.83138,7.4884316 4.0493653,9.3053751 Z"
     fill="#d35400"
     style="paint-order:fill markers stroke"
     id="path59" />
   <path
     transform="scale(0.26458333)"
     d="m 31.949219,30.001953 -3.326172,0.628906 c 0.143094,0.284323 0.284914,0.56871 0.416015,0.859375 l 3.339844,-0.894531 c -0.139761,-0.200568 -0.283597,-0.398031 -0.429687,-0.59375 z"
     fill="#bdc3c7"
     style="paint-order:fill markers stroke"
     id="path61" />
   <path
     transform="scale(0.26458333)"
     d="m 20.344982,16.362823 -0.233654,0.871552 c 5.058196,0.184616 9.917407,2.05105 13.777344,5.349609 -3.37836,-4.657346 -11.188234,-6.003824 -13.54369,-6.221161 z"
     fill="#eff0f1"
     style="paint-order:fill markers stroke"
     id="path63" />
   <path
     transform="scale(0.26458333)"
     d="m 21.117188,13.482422 -1.00586,3.751953 c 0.200661,0.0073 0.401585,0.01272 0.601563,0.02539 L 21.412109,13.5625 c -0.09787,-0.02778 -0.196617,-0.05361 -0.294921,-0.08008 z"
     fill="#bdc3c7"
     style="paint-order:fill markers stroke"
     id="path65" />
   <path
     d="M 4.7818788,2.3859013 A 0.27904934,0.26458349 0 0 0 4.5028262,2.6504845 0.27904934,0.26458349 0 0 0 4.7105654,2.9057662 0.27904934,0.26458349 0 0 1 4.6718079,2.772441 0.27904934,0.26458349 0 0 1 4.9508608,2.5078577 a 0.27904934,0.26458349 0 0 1 0.071313,0.0093 0.27904934,0.26458349 0 0 0 -0.2402954,-0.131258 z"
     fill="url(#radialGradient886)"
     style="fill:url(#radialGradient886);paint-order:fill markers stroke"
     id="path67" />
  </g>
 </g>
 <path
   style="display:inline;mix-blend-mode:normal;fill:url(#linearGradient3403);fill-opacity:1;stroke:url(#linearGradient20558);stroke-width:1.16242;stroke-linecap:butt;stroke-linejoin:round;stroke-miterlimit:4;stroke-dasharray:none;stroke-opacity:1;filter:url(#filter20720)"
   d="M 4.7043071,3.9814882 4.6913695,60.80196 H 58.59546 l 1.022155,-2.866369 c 0,0 -23.87537,0.766388 -32.844441,-4.140386 C 16.257548,48.042344 11.401114,4.0978197 11.401114,4.0978197 Z"
   id="path1686"
   transform="matrix(0.49999999,0,0,0.5,0.06630363,0.01654935)" />
 <rect
   style="display:inline;fill:none;fill-opacity:1;stroke:url(#linearGradient4557);stroke-width:3.71366;stroke-linejoin:round;stroke-miterlimit:7.8;stroke-dasharray:none;stroke-opacity:0.995146;filter:url(#filter4601)"
   id="rect4539"
   width="62.567089"
   height="62.866646"
   x="1.0323594"
   y="0.59551275"
   ry="6.2447233"
   rx="5.8029528"
   transform="matrix(0.46839137,0,0,0.46743669,0.90638486,1.0268972)" />
</svg>

<svg width="32" height="32" version="1.1" viewBox="0 0 32 32" xmlns="http://www.w3.org/2000/svg" xmlns:xlink="http://www.w3.org/1999/xlink">
<defs>
<linearGradient id="linearGradient3403" x1="6.9492" x2="11.215" y1="4.5549" y2="59.052" gradientUnits="userSpaceOnUse">
<stop style="stop-color:#32373c" offset="0"/>
<stop style="stop-color:#1a1a1a" offset=".36805"/>
<stop style="stop-color:#31363b" offset="1"/>
</linearGradient>
<linearGradient id="linearGradient20558" x1="25.802" x2="25.111" y1="20.374" y2="58.913" gradientUnits="userSpaceOnUse">
<stop style="stop-color:#3d3d3d" offset="0"/>
<stop offset=".61772"/>
<stop style="stop-color:#3d3d3d" offset="1"/>
</linearGradient>
<linearGradient id="linearGradient4557" x1="43.5" x2="44.142" y1="64.012" y2=".30621" gradientTransform="translate(.36068 -.13017)" gradientUnits="userSpaceOnUse">
<stop style="stop-color:#141618" offset="0"/>
<stop style="stop-color:#686868" offset=".51821"/>
<stop style="stop-color:#31363b" offset="1"/>
</linearGradient>
<linearGradient id="linearGradient1006" x1="4.8405" x2="9.4169" y1="5.9971" y2="10.573" gradientUnits="userSpaceOnUse">
<stop offset="0"/>
<stop stop-color="#05221c" stop-opacity="0" offset="1"/>
</linearGradient>
<linearGradient id="linearGradient1078" x1="19.17" x2="19.17" y1="43" y2="1.8314" gradientTransform="translate(.0026995)" gradientUnits="userSpaceOnUse">
<stop stop-color="#16a085" offset="0"/>
<stop stop-color="#1cdc9a" offset="1"/>
</linearGradient>
<linearGradient id="linearGradient1087" x1="19.17" x2="40.893" y1="43" y2="-13.595" gradientUnits="userSpaceOnUse">
<stop stop-color="#1abc9c" offset="0"/>
<stop stop-color="#eff0f1" offset="1"/>
</linearGradient>
<radialGradient id="radialGradient886" cx="19.473" cy="10.657" r=".98145" gradientTransform="matrix(.72785 0 0 .72858 -9.2764 -5.0199)" gradientUnits="userSpaceOnUse">
<stop stop-color="#16a085" offset="0"/>
<stop stop-color="#16a085" stop-opacity="0" offset="1"/>
</radialGradient>
</defs>
<rect x="2.1033" y="2.0073" width="27.986" height="28.404" ry="0" style="fill-rule:evenodd;fill:#d2873f"/>
<g transform="matrix(.58723 0 0 .58723 2.0682 1.6541)">
<g transform="matrix(3.7795 0 0 3.7795 5.5366 -1.7196)">
<path transform="scale(.26458)" d="m4 37v1c0 3.324 2.676 6 6 6h4.6719l1-1h-5.6719c-3.324 0-6-2.676-6-6z" fill="#11806b" style="paint-order:fill markers stroke"/>
<path d="m5.8668 2.5239-3.4401 7.2523-1.063 0.94878c0.28822 0.39511 0.75344 0.65216 1.2821 0.65216h7.4083c0.87947 0 1.5875-0.70802 1.5875-1.5875v-1.4909z" fill="url(#linearGradient1006)" opacity=".1" style="fill:url(#linearGradient1006);paint-order:fill markers stroke"/>
<path transform="scale(.26458)" d="m21.289 22.203c3.4051 2.3388 6.0683 5.5632 7.748 9.2871l3.3418-0.89453c-2.6806-3.8469-6.5361-6.818-11.09-8.3926z" fill="#fff" style="paint-order:fill markers stroke"/>
<path transform="scale(.26458)" d="m21.117 13.482-1.0059 3.752c5.0582 0.18462 9.9174 2.051 13.777 5.3496-3.0602-4.5243-7.6205-7.7149-12.771-9.1016z" fill="#fff" style="paint-order:fill markers stroke"/>
<path d="m8.1501 8.9099-0.20674 0.1194c-0.39356-1.2801-1.2033-2.3941-2.3106-3.1547 1.4216 0.54447 2.3005 2.4482 2.5174 3.0353z" fill="#eff0f1" style="paint-order:fill markers stroke"/>
<path transform="scale(.26458)" d="m18.322 8.541c-0.76659-0.046782-1.4826 0.44684-1.6895 1.2188l-0.3125 1.166c-0.13964 0.52115-0.01012 1.0462 0.29688 1.4395l-0.0059 0.0039c0.29677 0.39001 0.42043 0.90387 0.28516 1.416-5.06e-4 0.0019 5.14e-4 0.0039 0 0.0059l-0.0625 0.23047-0.01758 0.06445-1.123 4.1914-0.0332 0.12305-0.25976 0.96875c-0.90132 2.0296-1.985 2.8392-3.8984 2.6308-2.4853 0-4.5 2.0147-4.5 4.5 1.093e-4 0.41137 0.056624 0.82078 0.16797 1.2168 0.27137 1.2548-0.036926 2.6015-0.95117 3.6172l-2.2168 2.2168v3.4492c0 0.40468 0.041521 0.79983 0.11719 1.1816 0.049353 0.24903 0.11634 0.48983 0.19531 0.72656 0.019351 0.05805 0.041437 0.11462 0.0625 0.17188 0.071562 0.19442 0.15366 0.3841 0.24414 0.56836 0.017461 0.03553 0.032617 0.07223 0.050781 0.10742 0.11676 0.22632 0.24509 0.44411 0.38867 0.65234 0.00372 0.0053 0.00798 0.01033 0.011719 0.01563 0.1336 0.19242 0.28085 0.37383 0.43555 0.54883 0.036094 0.04082 0.072184 0.0813 0.10938 0.12109 0.15443 0.16539 0.31609 0.32372 0.48828 0.4707 0.013002 0.01096 0.025965 0.02224 0.039062 0.0332 0.19304 0.16195 0.39662 0.31038 0.60938 0.44727 0.026381 0.01701 0.053421 0.03212 0.080078 0.04883 0.18434 0.11456 0.37517 0.21812 0.57227 0.3125 0.043204 0.02079 0.085132 0.04281 0.12891 0.0625 0.22982 0.10337 0.46665 0.19534 0.71094 0.26953 0.55538 0.1687 1.1439 0.26172 1.7559 0.26172h5.6719l0.85547-0.85547c4.2892-4.2892 14.981-6.3781 22.73-9.5195 1.4669-0.39305 2.3305-1.8905 1.9375-3.3574-0.08599-0.32088-0.19641-0.50682-0.33398-0.60547l0.07617-0.35938-2.6426 0.70898h-0.0059l-22.984 6.1582 0.33594-1.252 1.0176-3.7969 3.3887-12.643 1.6094-6.0078 0.51758-1.9316-1.9316-0.51758c-0.0066-0.00176-0.01297-0.00221-0.01953-0.00391l-1.5723-0.42188-0.07227-0.019531-2e-3 0.00781c-0.08548-0.019023-0.17094-0.037787-0.25586-0.042969z" fill="url(#linearGradient1078)" style="fill:url(#linearGradient1078);paint-order:fill markers stroke"/>
<circle cx="3.0427" cy="7.0115" r=".92604" fill="#fff" style="paint-order:fill markers stroke"/>
<ellipse cx="3.3073" cy="6.7469" rx=".39687" ry=".39687" fill="#2c3e50" style="paint-order:fill markers stroke"/>
<path transform="scale(.26458)" d="m21.207 9.2793-8.8672 27.633h2e-3c-0.08714 0.32546-0.0041 0.6729 0.2207 0.92383 0.2513 0.27994 0.63871 0.39473 1.002 0.29687v0.0039l27.631-8.8691-0.25781-0.96484-25.633 6.8672 6.8691-25.631z" fill="url(#linearGradient1087)" style="fill:url(#linearGradient1087);paint-order:fill markers stroke"/>
<path d="m4.0494 9.3054 4.5883-4.5883" fill="#fff" opacity=".878" style="paint-order:fill markers stroke"/>
<path d="m5.8668 2.5239-1.1582 6.1222 6.1227-1.1577-6.782 1.8169z" fill="#d35400" style="paint-order:fill markers stroke"/>
<path transform="scale(.26458)" d="m31.949 30.002-3.3262 0.62891c0.14309 0.28432 0.28491 0.56871 0.41602 0.85938l3.3398-0.89453c-0.13976-0.20057-0.2836-0.39803-0.42969-0.59375z" fill="#bdc3c7" style="paint-order:fill markers stroke"/>
<path transform="scale(.26458)" d="m20.345 16.363-0.23365 0.87155c5.0582 0.18462 9.9174 2.051 13.777 5.3496-3.3784-4.6573-11.188-6.0038-13.544-6.2212z" fill="#eff0f1" style="paint-order:fill markers stroke"/>
<path transform="scale(.26458)" d="m21.117 13.482-1.0059 3.752c0.20066 0.0073 0.40158 0.01272 0.60156 0.02539l0.69922-3.6973c-0.09787-0.02778-0.19662-0.05361-0.29492-0.08008z" fill="#bdc3c7" style="paint-order:fill markers stroke"/>
<path d="m4.7819 2.3859a0.27905 0.26458 0 0 0-0.27905 0.26458 0.27905 0.26458 0 0 0 0.20774 0.25528 0.27905 0.26458 0 0 1-0.038758-0.13333 0.27905 0.26458 0 0 1 0.27905-0.26458 0.27905 0.26458 0 0 1 0.071313 0.0093 0.27905 0.26458 0 0 0-0.2403-0.13126z" fill="url(#radialGradient886)" style="fill:url(#radialGradient886);paint-order:fill markers stroke"/>
</g>
</g>
<path transform="matrix(.5 0 0 .5 .066304 .016549)" d="m4.7043 3.9815-0.012938 56.82h53.904l1.0222-2.8664s-23.875 0.76639-32.844-4.1404c-10.516-5.7529-15.372-49.697-15.372-49.697z" style="fill:url(#linearGradient3403);mix-blend-mode:normal;stroke-linejoin:round;stroke-width:1.1624;stroke:url(#linearGradient20558)"/>
<rect transform="matrix(.46839 0 0 .46744 .90638 1.0269)" x="1.0324" y=".59551" width="62.567" height="62.867" rx="5.803" ry="6.2447" style="fill:none;stroke-linejoin:round;stroke-miterlimit:7.8;stroke-opacity:.99515;stroke-width:3.7137;stroke:url(#linearGradient4557)"/>
</svg>
